X:1
T:Little Soldiers
T:Little Soldiers
T:H. M. Eagle
T:James Rowe, 1914
T:Public Domain Courtesy of the Cyber Hymnal™
C:H. M. Eagle
Z:Public Domain
Z:Courtesy of the Cyber Hymnal™
%%score ( 1 2 ) ( 3 4 )
L:1/8
Q:1/4=90
M:2/4
K:Bb
V:1 treble 
V:2 treble 
V:3 bass 
V:4 bass 
V:1
 [DF][DF] [B,D][CE] | [DF]4 | [EA][EA] [EG][EA] | [DB]4 | [DF][DF] [DB][FA] | [EG][EG] [=Ec][EB] | %6
w: 1.~Learn- ing how to|fight,|Keep- ing Christ in|sight,|We are sing- ing,|joy- bells ring- ing,|
w: 2.~Je- sus is our|guide,|He is at our|side;|He de- fends us,|cour- age lends us,|
w: 3.~If we con- quer|sin,|Keep- ing pure with-|in,|Win- ning glo- ry|with His sto- ry,|
w: 4.~In a hap- py|place,|With the saved by|grace,|Car- ols rais- ing,|Je- sus prais- ing,|
 [FA][GB] [FA][=EG] | F4 ||"^Refrain" F2 G2 | B2 d2 | [Fc][Fc] [=Ec][Ed] | [Fc]4 | d2 F2 | G2 c2 | %14
w: March- ing in the|light.|||||||
w: True we shall a-|bide.|Train- ing,|learn- ing,|God’s dear will to|do;|Sing- ing,|cling- ing,|
w: Life- crown we shall|win.|||||||
w: We shall see His|face.|||||||
 [DB][CA] [EG][EA] | [DB]4 |] %16
w: ||
w: Lit- tle sold- iers|true.|
w: ||
w: ||
V:2
 x4 | x4 | x4 | x4 | x4 | x4 | x4 | F4 || (DD) (DD) | (DD) (FF) | x4 | x4 | (FF) (DD) | (EE) (EE) | %14
 x4 | x4 |] %16
V:3
 [B,,B,][B,,B,] [B,,F,][B,,F,] | [B,,B,]4 | [F,C][F,C] [F,C][F,C] | [B,,B,]4 | %4
w: ~ ~ ~ ~|~|~ ~ ~ ~|~|
 [B,,B,][B,,B,] [B,,F,][D,B,] | [E,B,][E,B,] [C,C][C,C] | [C,C][C,C] [C,C][C,B,] | (z E,D,C,) || %8
w: ~ ~ ~ ~|~ ~ ~ ~|~ ~ ~ ~||
 [B,,B,][B,,B,] [B,,B,][B,,B,] | [B,,F,][B,,F,] [B,,B,][B,,B,] | [F,A,][F,A,] [C,G,][C,B,] | %11
w: * ~ Train- ing,|train- ing, we are|train- ing, ~ ~|
 [F,A,]4 | [B,,B,][B,,B,] [B,,B,][B,,B,] | [E,B,][E,B,] [E,G,][E,G,] | F,F, F,F, | [B,,F,]4 |] %16
w: ~|~ ~ Sing- ing,|sing- ing, we are|sing- ing, * *||
V:4
 x4 | x4 | x4 | x4 | x4 | x4 | x4 | [F,A,]4 || x4 | x4 | x4 | x4 | x4 | x4 | F,F, F,F, | x4 |] %16

